X: 11182
T: The LAST ROSE OF SUMMER
O: Irish air.
Q: "Slow, with feeling."
%R: air, waltz
B: W. Hamilton "Universal Tune-Book" Vol. 1 Glasgow 1844 p.118 #2
S: http://imslp.org/wiki/Hamilton's_Universal_Tune-Book_(Various)
Z: 2016 John Chambers <jc:trillian.mit.edu>
M: 3/4
L: 1/8
K: G
% - - - - - - - - - - - - - - - - - - - - - - - - -
G>A |\
B2 g2 (3(fed) | d2<<B2 G>A | B2 (3(dcB) (3(BAG) | G4 :|\
d>B |\
g2 g>f (3(fed) | d2<<B2 d>B | g2 g>f e^d | He2 {fe^d} ef Hg2 G>A |\
B2 g2 (3(fed) | d2<<B2 G>A | B2 (3(dcB) (3(BAG) | G4 |]
% - - - - - - - - - - - - - - - - - - - - - - - - -

%%sep 1 1 500
%%sep 1 1 500

